X: 6
T: The Lisnagun
R: jig
M: 6/8
L: 1/8
K: Gmaj
|: GED G3 | ABd B3 | ABd BAG | AGE GED |
GED G3 | ABd B3 | ABd BAG | AGF G3 :|
|: d3 BAG | ABd B3 | ABd BAG | AGE GED |
d3 BAG | ABd B3 | ABd BAG | AGF G3 :|


Tune 3842	Setting 16770

